svg/camera_plus_outline.svg

<svg xmlns="http://www.w3.org/2000/svg" viewBox="0 0 24 24"><path d="M21 6h-3.2L16 4h-6v2h5.1L17 8h4v12H5v-9H3v9c0 1.1.9 2 2 2h16c1.1 0 2-.9 2-2V8c0-1.1-.9-2-2-2M8 14c0 4.45 5.39 6.69 8.54 3.54S17.45 9 13 9c-2.76 0-5 2.24-5 5m5-3a3.09 3.09 0 0 1 3 3 3.09 3.09 0 0 1-3 3 3.09 3.09 0 0 1-3-3 3.09 3.09 0 0 1 3-3M5 6h3V4H5V1H3v3H0v2h3v3h2"/></svg>

<?xml version="1.0" encoding="UTF-8"?><!DOCTYPE svg PUBLIC "-//W3C//DTD SVG 1.1//EN" "http://www.w3.org/Graphics/SVG/1.1/DTD/svg11.dtd"><svg xmlns="http://www.w3.org/2000/svg" xmlns:xlink="http://www.w3.org/1999/xlink" version="1.1" id="mdi-camera-plus-outline" width="24" height="24" viewBox="0 0 24 24"><path d="M21 6H17.8L16 4H10V6H15.1L17 8H21V20H5V11H3V20C3 21.1 3.9 22 5 22H21C22.1 22 23 21.1 23 20V8C23 6.9 22.1 6 21 6M8 14C8 18.45 13.39 20.69 16.54 17.54C19.69 14.39 17.45 9 13 9C10.24 9 8 11.24 8 14M13 11C14.64 11.05 15.95 12.36 16 14C15.95 15.64 14.64 16.95 13 17C11.36 16.95 10.05 15.64 10 14C10.05 12.36 11.36 11.05 13 11M5 6H8V4H5V1H3V4H0V6H3V9H5" /></svg>
